svg/u1f33b.svg

<svg viewBox="0 0 128 128" xmlns="http://www.w3.org/2000/svg">
  <path d="M68.38,85.39l-7.43,0.7c0,0-0.79,12.94-1.66,20.29c-0.65,5.48-2.43,9.72-3.41,11.98 c-0.87,2.01-0.17,5.34,3.5,5.51c3.85,0.17,5.51-1.92,6.12-4.37c0.61-2.45,2.19-7.87,2.54-15.48S68.38,85.39,68.38,85.39z" fill="#94A71A"/>
  <path d="M65.23,103.75c0,0,2.85-7.67,10.72-8.46c10.48-1.05,15.77,6.27,16.03,7.76 c0.26,1.49-7.75,7.71-15.09,7.71c-8.13,0-11.92-4.04-11.92-4.04L65.23,103.75z" fill="#94A71A"/>
  <path d="M85.61,102.35c0.35-1.53-2.27-2.97-6.99-2.54c-4.72,0.44-7.14,1.79-8.28,2.58 c-1.14,0.79-3.7,2.5-3.09,3.11s4.49-0.99,8.24-1.57C81.99,102.93,85.2,104.13,85.61,102.35z" fill="#728034"/>
  <path d="M60.95,109.62c0,0-0.9-9.03-10.18-11.86c-7.7-2.34-16.68,3.95-16.88,5.22s5.82,8.07,12.46,9.98 C53.32,114.98,60.08,113.44,60.95,109.62z" fill="#94A71A"/>
  <path d="M39.72,104.2c0.26,1.41,3.95,1.21,8.91,2.21s8.57,3.28,9.24,2.75s-1.86-4.89-9.38-6.7 C42.94,101.12,39.52,103.13,39.72,104.2z" fill="#728034"/>
  <path d="M56.27,84.57c0,0,0.89,3.73,3.53,8.22c2.16,3.67,4.8,6.38,5.74,6.38c0.94,0,5.33-4.89,7.21-9.58 c0.61-1.51,1.47-6.1,1.47-6.1s4.02,3.35,6.5,4.89c2.48,1.54,7.5,3.42,8.24,2.75c0.74-0.67,1.88-6.63,1.88-8.84S90.49,76,90.49,76 s3.45,1.2,7.23,1.47c2.81,0.2,6.56-0.07,7.17-0.94c0.6-0.87-1.4-6.3-2.95-8.71c-2.14-3.35-5.36-5.63-5.36-5.63s4.82-1.67,8.04-3.62 c3.22-1.94,5.16-4.09,5.16-4.09s-3.01-3.55-6.23-5.69c-3.22-2.14-6.97-3.75-6.97-3.75s4.29-2.55,7.57-5.83 c2.15-2.15,3.95-5.96,3.95-5.96s-4.29-2.61-8.71-3.68c-4.42-1.07-9.38,0-9.38,0s2.41-4.22,3.01-8.37c0.6-4.15-0.33-7.7-0.33-7.7 s-5.22-0.4-9.78,2.68c-4.55,3.08-5.69,5.43-5.69,5.43s0.49-5.39-0.65-10.08c-0.98-4.03-3.77-7.6-3.77-7.6s-3.69,0.86-7.04,5.61 c-2.39,3.39-3.52,8.83-3.52,8.83s-2.03-5.61-4.58-8.49s-5.56-4.56-6.16-4.47s-3.48,4.02-4.15,10.32c-0.48,4.53,1,7.44,1,7.44 s-3.95-2.86-7.84-4.22c-4.96-1.74-9.3-1.99-9.65-1.67s-0.67,5.22,1.54,10.85c1.42,3.63,4.02,6.5,4.02,6.5s-4.4-1.47-9.91-1.14 c-4.49,0.27-7.47,1.47-7.64,1.88c-0.17,0.41,1.56,4.78,5.02,8.17c3.35,3.28,7.3,4.89,7.3,4.89s-4.51,1.18-7.98,3.47 c-4.11,2.72-5.45,6.25-5.41,6.71c0.04,0.46,3.22,3.82,7.17,4.96c3.95,1.14,7.5,0.6,7.5,0.6s-3.88,3.22-6.03,7.5 c-1.57,3.13-2.79,7.04-2.48,7.44s4.34,1.77,8.64,1.21c5.63-0.74,9.24-3.28,9.24-3.28s-1.58,5.29-1.45,9.18 c0.13,3.88,1.3,7.58,1.78,7.84c0.48,0.26,5.43-1.27,8.77-3.82C54.32,87.65,56.27,84.57,56.27,84.57z" fill="#FFB901"/>
  <path d="M64.37,24.54C49.41,24.67,36.35,35.07,37.3,54.97c1.04,21.78,29.62,33.2,45.81,18.85 c13.9-12.32,10-30.01,4.95-36.86C82.91,29.98,76.37,24.43,64.37,24.54z" fill="#D05416"/>
  <path d="M64.16,31.91c-8.42-0.06-19.91,5.67-19.59,20.75C44.88,67.5,57.31,73.95,67,73.51 c11.37-0.53,18.43-10.53,18.53-21.59C85.62,42.75,79.32,32.01,64.16,31.91z" fill="#6D4D42"/>
</svg>

<svg viewBox="0 0 128 128" xmlns="http://www.w3.org/2000/svg">
  <defs/>
  <path d="M68.38,85.39 L60.95,86.09 C60.95,86.09 60.16,99.03 59.29,106.38 C58.64,111.86 56.86,116.1 55.88,118.36 C55.01,120.37 55.71,123.7 59.38,123.87 C63.23,124.04 64.89,121.95 65.5,119.5 C66.11,117.05 67.69,111.63 68.04,104.02 C68.39,96.41 68.38,85.39 68.38,85.39 Z" fill="#94A71A"/>
  <path d="M65.23,103.75 C65.23,103.75 68.08,96.08 75.95,95.29 C86.43,94.24 91.72,101.56 91.98,103.05 C92.24,104.54 84.23,110.76 76.89,110.76 C68.76,110.76 64.97,106.72 64.97,106.72 L65.23,103.75 Z" fill="#94A71A"/>
  <path d="M85.61,102.35 C85.96,100.82 83.34,99.38 78.62,99.81 C73.9,100.25 71.48,101.6 70.34,102.39 C69.2,103.18 66.64,104.89 67.25,105.5 C67.86,106.11 71.74,104.51 75.49,103.93 C81.99,102.93 85.2,104.13 85.61,102.35 Z" fill="#728034"/>
  <path d="M60.95,109.62 C60.95,109.62 60.05,100.59 50.77,97.76 C43.07,95.42 34.09,101.71 33.89,102.98 C33.69,104.25 39.71,111.05 46.35,112.96 C53.32,114.98 60.08,113.44 60.95,109.62 Z" fill="#94A71A"/>
  <path d="M39.72,104.2 C39.98,105.61 43.67,105.41 48.63,106.41 C53.59,107.41 57.2,109.69 57.87,109.16 C58.54,108.63 56.01,104.27 48.49,102.46 C42.94,101.12 39.52,103.13 39.72,104.2 Z" fill="#728034"/>
  <path d="M56.27,84.57 C56.27,84.57 57.16,88.3 59.8,92.79 C61.96,96.46 64.6,99.17 65.54,99.17 C66.48,99.17 70.87,94.28 72.75,89.59 C73.36,88.08 74.22,83.49 74.22,83.49 C74.22,83.49 78.24,86.84 80.72,88.38 C83.2,89.92 88.22,91.8 88.96,91.13 C89.7,90.46 90.84,84.5 90.84,82.29 C90.84,80.08 90.49,76 90.49,76 C90.49,76 93.94,77.2 97.72,77.47 C100.53,77.67 104.28,77.4 104.89,76.53 C105.49,75.66 103.49,70.23 101.94,67.82 C99.8,64.47 96.58,62.19 96.58,62.19 C96.58,62.19 101.4,60.52 104.62,58.57 C107.84,56.63 109.78,54.48 109.78,54.48 C109.78,54.48 106.77,50.93 103.55,48.79 C100.33,46.65 96.58,45.04 96.58,45.04 C96.58,45.04 100.87,42.49 104.15,39.21 C106.3,37.06 108.1,33.25 108.1,33.25 C108.1,33.25 103.81,30.64 99.39,29.57 C94.97,28.5 90.01,29.57 90.01,29.57 C90.01,29.57 92.42,25.35 93.02,21.2 C93.62,17.05 92.69,13.5 92.69,13.5 C92.69,13.5 87.47,13.1 82.91,16.18 C78.36,19.26 77.22,21.61 77.22,21.61 C77.22,21.61 77.71,16.22 76.57,11.53 C75.59,7.5 72.8,3.93 72.8,3.93 C72.8,3.93 69.11,4.79 65.76,9.54 C63.37,12.93 62.24,18.37 62.24,18.37 C62.24,18.37 60.21,12.76 57.66,9.88 C55.11,7 52.1,5.32 51.5,5.41 C50.9,5.5 48.02,9.43 47.35,15.73 C46.87,20.26 48.35,23.17 48.35,23.17 C48.35,23.17 44.4,20.31 40.51,18.95 C35.55,17.21 31.21,16.96 30.86,17.28 C30.51,17.6 30.19,22.5 32.4,28.13 C33.82,31.76 36.42,34.63 36.42,34.63 C36.42,34.63 32.02,33.16 26.51,33.49 C22.02,33.76 19.04,34.96 18.87,35.37 C18.7,35.78 20.43,40.15 23.89,43.54 C27.24,46.82 31.19,48.43 31.19,48.43 C31.19,48.43 26.68,49.61 23.21,51.9 C19.1,54.62 17.76,58.15 17.8,58.61 C17.84,59.07 21.02,62.43 24.97,63.57 C28.92,64.71 32.47,64.17 32.47,64.17 C32.47,64.17 28.59,67.39 26.44,71.67 C24.87,74.8 23.65,78.71 23.96,79.11 C24.27,79.51 28.3,80.88 32.6,80.32 C38.23,79.58 41.84,77.04 41.84,77.04 C41.84,77.04 40.26,82.33 40.39,86.22 C40.52,90.1 41.69,93.8 42.17,94.06 C42.65,94.32 47.6,92.79 50.94,90.24 C54.32,87.65 56.27,84.57 56.27,84.57 Z" fill="#FFB901"/>
  <path d="M64.37,24.54 C49.41,24.67 36.35,35.07 37.3,54.97 C38.34,76.75 66.92,88.17 83.11,73.82 C97.01,61.5 93.11,43.81 88.06,36.96 C82.91,29.98 76.37,24.43 64.37,24.54 Z" fill="#D05416"/>
  <path d="M64.16,31.91 C55.74,31.85 44.25,37.58 44.57,52.66 C44.88,67.5 57.31,73.95 67,73.51 C78.37,72.98 85.43,62.98 85.53,51.92 C85.62,42.75 79.32,32.01 64.16,31.91 Z" fill="#6D4D42"/>
</svg>
